!!!COM: Bach, Johann Sebastian
!!!OTL: Herr Christ, der ein'ge Gott's sohn
!!!ONM: No. 303
!!!OCL: Erk
!!!YOE: Riemenschneider, Albert
!!!OPR: 371 Harmonized Chorales and 69 Chorale Melodies with Figured Bass
!!!OPT: Bach Chorale Harmonizations
**kern	**kern	**kern	**kern
! bass	! tenor	! alto	! soprano
*M4/4	*M4/4	*M4/4	*M4/4
*F:	*F:	*F:	*F:
4F	4A	4c	4f
=1	=1	=1	=1
4BB-	4B-	8d	8f
.	.	8e	8g
4F	4c	4f	4a
4C	8c	4e	4g
.	8B-	.	.
4D	4A	4d	4f
=2	=2	=2	=2
4GG	4B-	4d	2e
4AA	8A	4c#	.
.	8G	.	.
4D;	4F;	4A;	4d;
4d	4d	4f#	4a
=3	=3	=3	=3
8G	4d	8g	4b-
8A	.	8fn	.
4B-	4c	4e	4g
8A	4c	4f	4a
8F	.	.	.
4C	8c	4e	4g
.	8B-	.	.
=4	=4	=4	=4
2.FF;	2.A;	2.c;	2.f;
!! Repeat from the beginning.
4F	4A	4c	4f
=1	=1	=1	=1
4BB-	4B-	8d	8f
.	.	8e	8g
4F	4c	4f	4a
4C	8c	4e	4g
.	8B-	.	.
4D	4A	4d	4f
=2	=2	=2	=2
4GG	4B-	4d	2e
4AA	8A	4c#	.
.	8G	.	.
4D;	4F;	4A;	4d;
4d	4d	4f#	4a
=3	=3	=3	=3
8G	4d	8g	4b-
8A	.	8fn	.
4B-	4c	4e	4g
8A	4c	4f	4a
8F	.	.	.
4C	8c	4e	4g
.	8B-	.	.
=4	=4	=4	=4
2.FF;	2.A;	2.c;	2.f;
!! Continuing.
8F	4A	4c	8f
8E	.	.	8g
=5	=5	=5	=5
4D	4d	4f	4a
4C	4d	4f#	4a
8BB-	4d	4g	4b-
8AA	.	.	.
4GG	4d	4g	4b-
=6	=6	=6	=6
4.AA	2c	4g	2cc
.	.	4fn	.
8BB-	.	.	.
4C;	4c;	4e;	4g;
4E	4c	4g	4cc
=7	=7	=7	=7
4F	4c	4f	4a
4F#	4c	4e-	4a
4G	4B-	4d	4g
4G#	4Bn	4d	4f
=8	=8	=8	=8
4A	8E	4d	2e
.	8F	.	.
4AA	4G	4c#	.
4BB-;	4F;	4d;	4d;
4AA	4cn	4f#	4a
=9	=9	=9	=9
8GG	4d	8g	4b-
8AA	.	8fn	.
4BB-	4c	4e	4g
8AA	4c	4f	4a
8BB-	.	.	.
4C	8c	4e	4g
.	8B-	.	.
=10	=10	=10	=10
2.FF;	2.A;	2.c;	2.f;
==	==	==	==
*-	*-	*-	*-
!!!CDT: 1685/3//-1750/7/28
!!!OCY: Deutschland
!!!AGN: chorale
!!!AST: Baroque
!!!AIN: vox
!!!YOY: 1941
!!!PPP: New York; London
!!!PPR: G. Schirmer
!!!ENC: David Huron
!!!EED: David Huron
!!!YEN: United States of America
!!!YER: 1992
!!!YEC: Copyright 1992 David Huron
!!!YEM: Rights to all derivative electronic formats reserved.
!!!YER: March 20, 1996
!!!AMT: simple quadruple
!!!EEV: 1.1
